synths/sCOMP.svg

<svg width="480" height="480" viewBox="0 0 480 480" fill="none" xmlns="http://www.w3.org/2000/svg"><mask id="mask0-420003" maskUnits="userSpaceOnUse" x="0" y="0" width="480" height="480"><circle cx="240" cy="240" r="240" fill="url(#paint0_linear-662342)"/></mask><g mask="url(#mask0-420003)"><circle cx="240" cy="240" r="240" fill="#31D8A4"/><circle cx="240" cy="240" r="208" fill="#fff"/></g><circle cx="240" cy="240" r="184" fill="#0E052F"/><circle cx="240" cy="240" r="184" fill="#000"/><path fill-rule="evenodd" clip-rule="evenodd" d="M154.166 308.537a20.583 20.583 0 01-9.846-17.538v-39.902a8.52 8.52 0 011.173-4.309c2.372-4.091 7.636-5.482 11.727-3.082l90.06 52.502a17.153 17.153 0 018.509 14.81v41.348c0 1.882-.519 3.764-1.5 5.373-2.973 4.855-9.301 6.382-14.156 3.409l-85.967-52.611zm134.243-75.768a17.156 17.156 0 018.509 14.81v83.895a6.835 6.835 0 01-3.491 5.973l-19.719 11.101a4.066 4.066 0 01-.791.327v-46.584a17.176 17.176 0 00-8.346-14.728l-79.095-47.321v-52.584c0-1.528.41-3 1.173-4.31 2.373-4.091 7.637-5.482 11.728-3.082l90.032 52.503zm39.411-61.967c5.291 3.055 8.537 8.728 8.537 14.838v122.542a6.88 6.88 0 01-3.6 6.027l-18.684 10.092v-85.314a17.165 17.165 0 00-8.317-14.7l-80.841-48.493v-49.885c0-1.527.409-3 1.145-4.309 2.373-4.091 7.637-5.482 11.728-3.109l90.032 52.311z" fill="#00D395"/><defs><linearGradient id="paint0_linear-662342" x1="240" y1="0" x2="240" y2="701.818" gradientUnits="userSpaceOnUse"><stop stop-color="#08021E"/><stop offset="1" stop-color="#1F0777"/></linearGradient></defs></svg>

<svg width="480" height="480" viewBox="0 0 480 480" fill="none" xmlns="http://www.w3.org/2000/svg">
<mask id="mask0-420003" mask-type="alpha" maskUnits="userSpaceOnUse" x="0" y="0" width="480" height="480">
<circle cx="240" cy="240" r="240" fill="url(#paint0_linear-662342)"/>
</mask>
<g mask="url(#mask0-420003)">
<circle cx="240" cy="240" r="240" fill="#31D8A4"/>
<circle cx="240" cy="240" r="208" fill="white"/>
</g>
<circle cx="240" cy="240" r="184" fill="#0E052F"/>
<circle cx="240" cy="240" r="184" fill="black"/>
<path fill-rule="evenodd" clip-rule="evenodd" d="M154.166 308.537C148.056 304.8 144.32 298.146 144.32 290.999V251.097C144.32 249.57 144.729 248.098 145.493 246.788C147.865 242.697 153.129 241.306 157.22 243.706L247.28 296.208C252.544 299.29 255.789 304.909 255.789 311.018V352.366C255.789 354.248 255.27 356.13 254.289 357.739C251.316 362.594 244.988 364.121 240.133 361.148L154.166 308.537ZM288.409 232.769C293.672 235.851 296.918 241.47 296.918 247.579V331.474C296.918 333.956 295.581 336.247 293.427 337.447L273.708 348.548C273.462 348.684 273.19 348.793 272.917 348.875V302.291C272.917 296.263 269.753 290.672 264.571 287.563L185.476 240.242V187.658C185.476 186.13 185.886 184.658 186.649 183.348C189.022 179.257 194.286 177.866 198.377 180.266L288.409 232.769ZM327.82 170.802C333.111 173.857 336.357 179.53 336.357 185.64V308.182C336.357 310.691 334.966 313.009 332.757 314.209L314.073 324.301V238.987C314.073 232.96 310.91 227.396 305.756 224.287L224.915 175.794V125.909C224.915 124.382 225.324 122.909 226.06 121.6C228.433 117.509 233.697 116.118 237.788 118.491L327.82 170.802Z" fill="#00D395"/>
<defs>
<linearGradient id="paint0_linear-662342" x1="240" y1="0" x2="240" y2="701.818" gradientUnits="userSpaceOnUse">
<stop stop-color="#08021E"/>
<stop offset="1" stop-color="#1F0777"/>
</linearGradient>
</defs>
</svg>
